X:1489
T:Courting Them All
R:reel
N:"collected from Cronin"
B:"O'Neill's Dance Music of Ireland, 1489"
T: ag suiri.d iad go leir.
Z:transcribed by John B. Walsh, 8/22/96
M:C|
L:1/8
K:D
F|DF ((3ABc)d2 ((3ABc)|d2 (fd) ecAc|d2 (Ac) BAGF|EFGE FDDF|
DF ((3ABc) d2 ((3ABc)|d2 (fd) ecAc|d2 (Ac) BAGF|EFGE FD D||
c|d2 (fd) ((3fga) (fd)|g2 bg ecAc|d2 fd ((3fga) fd|efge fddc|
d2 (fd) ((3fga) (fd)|g2 bg ecAc|d2 (Ac) BAGF|EFGE FD D||


